X:1
T:Title
%%score 1 { ( 2 5 ) | ( 3 4 ) }
L:1/8
M:4/4
K:Eb
V:1 treble nm="Akkordion"
V:2 treble nm="Grand Piano"
V:5 treble 
V:3 bass 
V:4 bass 
V:1
 z4 z2[Q:1/4=100] CD | E2 E2 E2 DC | G3 C C2 C2 | C2 EG c2 =Bc | e3 c c2 GA | B3 B A3 A | %6
 G3 F E2 E2 | E2 DE B2 A(3GF/4G/4 |[M:7/8] F3 E E3 |[M:1/8] z |[M:4/4] z8 | z8 | z8 | z8 | z8 | %15
 z8 | z8 |[M:3/4] z6 |] %18
V:2
 z8 | [CEG]GGG GGGG | [EG]GGG GGGG | [EG]GGG GGGG | [EG]GGG GGGG | [EG]GGG AAAA | %6
 [G,DG][DG][DG][DG] [G,CEG][CEG][CEG][CEG] | [=A,E_G=A][EGA][EGA][EGA] [B,E=GB]BAG | %8
[M:7/8] FFF E[G,B,E] EE |[M:1/8] [Ge] |[M:4/4] [Ge]2 [Gd]2 [EGc]3 [EGc] | [EGc]2 [EGB]>E G3 B | %12
 Bcdf edcB | A<B G<A F3 B | [Ge]2 d>c [DAc]3 [DAc] | [GB]2 [EA]>E [FG]3 [FG] | %16
 [EG]2 [E=A]2 [EB]2 [F_A][EG] |[M:3/4] [DF]3 E E2 |] %18
V:3
 z4 z2 CD | z [CE][CE][K:treble][CE] [CE][CE][CE][CE] | C[CE][CE][CE] [CE][CE][CE][CE] | %3
 C[K:treble][CE][CE][CE] [CE][CE][CE][CE] | C[CE][CE][CE] [CE][CE][CE][CE] | %5
 B,[K:treble][B,E][B,E][B,E] [B,DF][B,DF][B,DF][B,DF] | z G,G,G, z G,G,G, | %7
 z =A,A,A, z [B,EG][B,_G][B,E] |[M:7/8] [A,B,E][A,B,E][A,B,D] [A,B,] z [G,B,][G,B,] | %9
[M:1/8] [E,B,] |[M:4/4] [E,B,]2 z z/[K:treble] B/[K:bass] E,3 E, | %11
 E,2 z z/ G,/ [E,B,E]3[K:treble] [EG] | [DF][EG][FA][Ac] [GB][FA][EG][DF] | %13
 .[CE]2 .[B,E]2 [B,D]3 [B,A] | [E,B,]2 [F,B,]2 [B,,B,]3 [B,,B,] | [E,_D]2 [E,C]2 [D,=B,]3 [D,B,] | %16
 [C,C]2 [=B,,_G,]2 [_B,,=G,]2 [B,,B,]2 |[M:3/4] [B,,A,]3 [E,G,B,] [E,G,B,]2 |] %18
V:4
 x8 | C,8[K:treble] | C,8 | C,8[K:treble] | C,8 | B,,8[K:treble] | =B,,4 C,4 | =B,,4 _B,,4- | %8
[M:7/8] B,,- B,,3 [E,,E,]3 |[M:1/8] x |[M:4/4] z2 [E,B,]2[K:treble][K:bass] z4 | %11
 z2 E,2 z4[K:treble] | x8 | x8 | x8 | x8 | x8 |[M:3/4] x6 |] %18
V:5
 x8 | x8 | x8 | x8 | x8 | x8 | x8 | x8 |[M:7/8] x7 |[M:1/8] x |[M:4/4] x8 | x8 | x8 | x8 | %14
 z2 A2 z4 | x8 | x8 |[M:3/4] x6 |] %18

